img/svg/icon-font/image-load.svg

<svg width="22" height="22" viewBox="0 0 22 22" fill="none" xmlns="http://www.w3.org/2000/svg">
<path fill-rule="evenodd" clip-rule="evenodd" d="M18.5625 1H3.4375C1.54201 1 0 2.54201 0 4.4375V16.4688C0 18.3642 1.54201 19.9062 3.4375 19.9062H15.168C15.6426 19.9062 16.0273 19.5215 16.0273 19.0469C16.0273 18.5722 15.6426 18.1875 15.168 18.1875H12.0027L10.0268 15.6241L16.2883 7.65999L20.5035 12.3187C20.7418 12.5824 21.118 12.6719 21.4496 12.5442C21.7811 12.4163 22 12.0975 22 11.7422V4.4375C22 2.54201 20.458 1 18.5625 1ZM20.2812 9.51151L16.8795 5.75157C16.7096 5.56375 16.4653 5.46002 16.2125 5.46925C15.9595 5.47815 15.7232 5.59799 15.5666 5.79706L8.94438 14.2199L6.69624 11.3034C6.5336 11.0925 6.28217 10.9688 6.01562 10.9688H6.01512C5.74858 10.9689 5.49698 11.0928 5.3345 11.3041L3.44321 13.7627C3.15384 14.139 3.22417 14.6785 3.60031 14.9679C3.97662 15.2574 4.51608 15.1869 4.80562 14.8108L6.0163 13.2367L9.83263 18.1875H3.4375C2.48984 18.1875 1.71875 17.4164 1.71875 16.4688V4.4375C1.71875 3.48984 2.48984 2.71875 3.4375 2.71875H18.5625C19.5102 2.71875 20.2812 3.48984 20.2812 4.4375V9.51151ZM6.01562 4.09375C4.59396 4.09375 3.4375 5.25021 3.4375 6.67188C3.4375 8.09354 4.59396 9.25 6.01562 9.25C7.43729 9.25 8.59375 8.09354 8.59375 6.67188C8.59375 5.25021 7.43729 4.09375 6.01562 4.09375ZM6.01562 7.53125C5.54179 7.53125 5.15625 7.14571 5.15625 6.67188C5.15625 6.19804 5.54179 5.8125 6.01562 5.8125C6.48946 5.8125 6.875 6.19804 6.875 6.67188C6.875 7.14571 6.48946 7.53125 6.01562 7.53125ZM20.1223 14.0093L20.1299 14.017L21.758 15.6992C22.0882 16.0402 22.0794 16.5842 21.7384 16.9144C21.5715 17.0759 21.356 17.1562 21.1407 17.1562C20.9161 17.1562 20.6917 17.0688 20.5232 16.8946L19.4602 15.7965V20.5938C19.4602 21.0684 19.0755 21.4531 18.6008 21.4531C18.1261 21.4531 17.7414 21.0684 17.7414 20.5938V15.7703L16.6308 16.8657C16.2929 17.1991 15.7488 17.1952 15.4156 16.8573C15.0822 16.5194 15.0859 15.9753 15.4238 15.6421L17.083 14.0056C17.4887 13.5989 18.0274 13.375 18.6008 13.375C19.1759 13.375 19.7162 13.6003 20.1223 14.0093Z" fill="#4C51CC"/>
</svg>

<svg width="22" height="22" fill="none" xmlns="http://www.w3.org/2000/svg"><path fill-rule="evenodd" clip-rule="evenodd" d="M18.563 1H3.438A3.441 3.441 0 000 4.438v12.03a3.441 3.441 0 003.438 3.438h11.73a.86.86 0 100-1.718h-3.165l-1.976-2.564 6.261-7.964 4.215 4.659A.86.86 0 0022 11.742V4.437A3.441 3.441 0 0018.562 1zm1.718 8.512l-3.401-3.76a.858.858 0 00-1.313.045L8.944 14.22l-2.248-2.917a.86.86 0 00-1.362 0l-1.89 2.46a.86.86 0 001.362 1.048l1.21-1.574 3.817 4.95H3.437A1.72 1.72 0 011.72 16.47V4.437A1.72 1.72 0 013.437 2.72h15.126a1.72 1.72 0 011.718 1.719v5.074zM6.016 4.094a2.58 2.58 0 00-2.579 2.578 2.58 2.58 0 002.58 2.578 2.58 2.58 0 002.578-2.578 2.58 2.58 0 00-2.578-2.578zm0 3.437a.86.86 0 010-1.718.86.86 0 010 1.718zm14.106 6.478l.008.008 1.628 1.682a.86.86 0 11-1.235 1.196l-1.063-1.098v4.797a.86.86 0 11-1.719 0V15.77l-1.11 1.096a.86.86 0 11-1.207-1.224l1.659-1.636a2.13 2.13 0 011.518-.631 2.13 2.13 0 011.521.634z" fill="#4C51CC"/></svg>
